epam-assets/icon-sources/18/file-export.svg

<svg width="18" height="18" viewBox="0 0 18 18" fill="none" xmlns="http://www.w3.org/2000/svg">
<g id="18/file-export">
<g id="icon">
<path d="M5.25 6.75L9 3L12.75 6.75L11.7 7.8375L9.75 5.8875V12H8.25V5.8875L6.3 7.8375L5.25 6.75Z" fill="#6C6F80"/>
<path d="M4.5 15C4.0875 15 3.7345 14.8533 3.441 14.5597C3.147 14.2657 3 13.9125 3 13.5V11.25H4.5V13.5H13.5V11.25H15V13.5C15 13.9125 14.8533 14.2657 14.5597 14.5597C14.2657 14.8533 13.9125 15 13.5 15H4.5Z" fill="#6C6F80"/>
</g>
</g>
</svg>

<svg xmlns="http://www.w3.org/2000/svg" width="18" height="18" fill="none" viewBox="0 0 18 18">
  <path fill="#6C6F80" d="M5.25 6.75 9 3l3.75 3.75-1.05 1.088-1.95-1.95V12h-1.5V5.888L6.3 7.838 5.25 6.75Z"/>
  <path fill="#6C6F80" d="M4.5 15c-.412 0-.765-.147-1.059-.44A1.445 1.445 0 0 1 3 13.5v-2.25h1.5v2.25h9v-2.25H15v2.25c0 .412-.147.766-.44 1.06a1.45 1.45 0 0 1-1.06.44h-9Z"/>
</svg>
